X: 101
T:Triumph,The. WI.101
M:2/4
Q:30
C:"a Country Dance"
S:Wm Irwin, Folio MS, c1850. AGG's Transcription
R:Country Dance
O:England
A:Lake District
Z:vmp.Chris Partington.2005
K:G
B/c/|d/B/B/G/ c/A/A/F/|G/g/f/g/ eg|d/B/B/G/ c/A/A/F/|GBGz:|!
|:A>c Bd|A>c Bd|A>c Bd|d/c/B/A/ G2:|!
|:BB/c/ d/c/B/c/|AA/B/ c/B/A/B/|G/A/B/c/ d/e/f/g/|d/c/B/A/ Gz:|]
